icons/change-font-size-24.svg

<?xml version="1.0" encoding="UTF-8"?><svg id="icons" xmlns="http://www.w3.org/2000/svg" viewBox="0 0 24 24"><defs><style>.cls-1{fill:none;}.cls-1,.cls-2{stroke-width:0px;}.cls-2{fill:#231f20;}</style></defs><rect class="cls-1" width="24" height="24"/><path class="cls-2" d="M23.00977,22h.91333L16.5,2h-1l-7.5,20h.91333l2.68146-7h8.76263l2.65234,7ZM11.97784,14l4.02216-10.5,3.97852,10.5h-8.00067ZM3,13L0,22h.76215l1.05981-3h3.35608l1.05981,3h.76215l-3-9h-1ZM2.17523,18l1.32477-3.75,1.32477,3.75h-2.64954Z"/></svg>

<svg xmlns="http://www.w3.org/2000/svg" viewBox="0 0 24 24"><path stroke-width="0" fill="none" d="M0 0h24v24H0z"/><path d="M23.01 22h.913L16.5 2h-1L8 22h.913l2.682-7h8.762l2.653 7zm-11.032-8L16 3.5 19.979 14h-8.001zM3 13l-3 9h.762l1.06-3h3.356l1.06 3H7l-3-9H3zm-.825 5L3.5 14.25 4.825 18h-2.65z" fill="#231f20" stroke-width="0"/></svg>
